www/assets/icons/type_specimen.svg

<svg xmlns="http://www.w3.org/2000/svg" width="24" height="24" viewBox="0 0 24 24" fill='currentColor'><path d="M4 6H2v14c0 1.1.9 2 2 2h14v-2H4z"/><path d="M20 2H8c-1.1 0-2 .9-2 2v12c0 1.1.9 2 2 2h12c1.1 0 2-.9 2-2V4c0-1.1-.9-2-2-2m-3.37 12.5-.8-2.3H12.2l-.82 2.3H9.81l3.38-9h1.61l3.38 9z"/><path d="m13.96 7.17-1.31 3.72h2.69l-1.3-3.72z"/></svg>

<svg width="24" height="24" viewBox="0 0 24 24" xmlns="http://www.w3.org/2000/svg" fill='currentColor'><path d="M4 6H2V20C2 21.1 2.9 22 4 22H18V20H4V6Z"/><path d="M20 2H8C6.9 2 6 2.9 6 4V16C6 17.1 6.9 18 8 18H20C21.1 18 22 17.1 22 16V4C22 2.9 21.1 2 20 2ZM16.63 14.5L15.83 12.2H12.2L11.38 14.5H9.81L13.19 5.5H14.8L18.18 14.5H16.63Z"/><path d="M13.96 7.17L12.65 10.89H15.34L14.04 7.17H13.96Z"/></svg>
